img/svg/insta.svg

<svg width="18" height="18" viewBox="0 0 18 18" fill="none" xmlns="http://www.w3.org/2000/svg">
<path d="M13.7812 0H4.21875C1.89253 0 0 1.89253 0 4.21875V13.7812C0 16.1075 1.89253 18 4.21875 18H13.7812C16.1075 18 18 16.1075 18 13.7812V4.21875C18 1.89253 16.1075 0 13.7812 0ZM16.5938 13.7812C16.5938 15.3321 15.3321 16.5938 13.7812 16.5938H4.21875C2.66789 16.5938 1.40625 15.3321 1.40625 13.7812V4.21875C1.40625 2.66789 2.66789 1.40625 4.21875 1.40625H13.7812C15.3321 1.40625 16.5938 2.66789 16.5938 4.21875V13.7812ZM9 5.02734C6.80946 5.02734 5.02734 6.80946 5.02734 9C5.02734 11.1905 6.80946 12.9727 9 12.9727C11.1905 12.9727 12.9727 11.1905 12.9727 9C12.9727 6.80946 11.1905 5.02734 9 5.02734ZM9 11.5664C7.58482 11.5664 6.43359 10.4152 6.43359 9C6.43359 7.58482 7.58482 6.43359 9 6.43359C10.4152 6.43359 11.5664 7.58482 11.5664 9C11.5664 10.4152 10.4152 11.5664 9 11.5664ZM14.5312 4.3477C14.5312 4.83302 14.1378 5.22661 13.6523 5.22661C13.167 5.22661 12.7734 4.83302 12.7734 4.3477C12.7734 3.86224 13.167 3.4688 13.6523 3.4688C14.1378 3.4688 14.5312 3.86224 14.5312 4.3477Z" fill="black"/>
</svg>

<svg width="18" height="18" viewBox="0 0 18 18" fill="none" xmlns="http://www.w3.org/2000/svg"><path d="M13.781 0H4.22A4.224 4.224 0 000 4.219v9.562A4.224 4.224 0 004.219 18h9.562A4.224 4.224 0 0018 13.781V4.22A4.224 4.224 0 0013.781 0zm2.813 13.781a2.816 2.816 0 01-2.813 2.813H4.22a2.816 2.816 0 01-2.813-2.813V4.22A2.816 2.816 0 014.22 1.406h9.562a2.816 2.816 0 012.813 2.813v9.562zM9 5.027A3.977 3.977 0 005.027 9 3.977 3.977 0 009 12.973 3.977 3.977 0 0012.973 9 3.977 3.977 0 009 5.027zm0 6.54A2.57 2.57 0 016.434 9 2.57 2.57 0 019 6.434 2.57 2.57 0 0111.566 9 2.57 2.57 0 019 11.566zm5.531-7.22a.879.879 0 11-1.758 0 .879.879 0 011.758 0z" fill="#000"/></svg>
